!!!OTL: ICH WUENSCHT ES WAERE NACHT
!!!ARE: Europa, Mitteleuropa, Deutschland
!!!SCT: E0814
!!!YEM: Copyright 1995, estate of Helmut Schaffrath.
**kern
*ICvox
*Ivox
*M3/4
*k[b-e-]
*B-:
{4f
=1
4b-
4d
4f
=2
2b-}
{8dd
8b-
=3
4.cc
8dd
8ee-
8cc
=4
2.dd}
=5
{8cc
8dd
4cc
4f
=6
4.b-
8cc
4dd}
=7
{8cc
8dd
4cc
4f
=8
4.b-
8cc
4dd}
=9
{8ee-
8cc
4dd
4cc
=10
2b-}
==
!!!AGN: Kilt - Lied
!!!ONB: ESAC (Essen Associative Code) Database: ERK2
!!!AMT: simple triple
!!!AIN: vox
!!!EED: Helmut Schaffrath
!!!EEV: 1.0
*-
